X: 37277
T: Skies Through Leaves
R: reel
M: 4/4
K: Aminor
G^G|:A3 G EF GA|DA cA Bd BG|A3 G EG (3Bcd|ed cA dc BG:|
|:A3 e gA eA|~A2 bg eg BG|1 A2 eA gA ez|
ed cA dc BG:|2 E3 c BE cB|ec Be cB GB||

